assets/features/payment-flow/PayMaya.svg

<svg width="200" height="200" viewBox="0 0 200 200" fill="none" xmlns="http://www.w3.org/2000/svg">
<rect width="200" height="200" rx="40" fill="#2FF19E"/>
<path d="M122.016 66C114.483 66 106.819 69.1514 101.93 74.1459L104.704 79.6629L103.531 80.5949C98.3479 71.7092 88.8176 66 78.6733 66C62.8202 66 50.0023 79.7925 50.0023 95.9506V130.762C49.9885 131.059 50.0372 131.355 50.1451 131.632C50.253 131.91 50.4178 132.161 50.629 132.372C50.8402 132.582 51.0932 132.746 51.3718 132.854C51.6504 132.962 51.9485 133.011 52.2472 132.998H63.745C64.3025 132.998 64.8372 132.778 65.2314 132.386C65.6256 131.994 65.847 131.462 65.847 130.908V95.6871C65.847 87.6751 70.7362 81.109 79.06 81.109C86.8541 81.109 92.4035 86.8851 92.4035 95.4239V124.325C92.3839 124.612 92.4237 124.899 92.5205 125.169C92.6174 125.439 92.7691 125.687 92.9663 125.896C93.1633 126.105 93.4019 126.272 93.6666 126.386C93.9314 126.5 94.217 126.558 94.5055 126.557H105.495C105.783 126.558 106.069 126.5 106.334 126.386C106.598 126.272 106.837 126.105 107.034 125.896C107.231 125.687 107.383 125.439 107.48 125.169C107.576 124.899 107.616 124.612 107.597 124.325V95.4239C107.597 86.8851 113.411 81.109 121.205 81.109C129.529 81.109 134.153 87.6751 134.153 95.6871V130.896C134.179 131.466 134.429 132.004 134.848 132.394C135.267 132.785 135.824 132.997 136.398 132.985H147.749C148.048 132.999 148.346 132.95 148.625 132.843C148.905 132.735 149.158 132.571 149.37 132.361C149.581 132.15 149.747 131.898 149.855 131.621C149.963 131.343 150.011 131.047 149.998 130.749V95.9506C149.998 79.7925 137.71 66 121.987 66" fill="white"/>
</svg>

<svg xmlns="http://www.w3.org/2000/svg" width="200" height="200" fill="none" viewBox="0 0 200 200"><rect width="200" height="200" fill="#2ff19e" rx="40"/><path fill="#fff" d="M122.016 66c-7.533 0-15.197 3.151-20.086 8.146l2.774 5.517-1.173.932C98.348 71.709 88.818 66 78.673 66c-15.853 0-28.67 13.793-28.67 29.95v34.812a2.12 2.12 0 0 0 .626 1.61 2.16 2.16 0 0 0 1.618.626h11.498c.557 0 1.092-.22 1.486-.612.395-.392.616-.924.616-1.478v-35.22c0-8.013 4.89-14.579 13.213-14.579 7.794 0 13.343 5.776 13.343 14.315v28.901a2.08 2.08 0 0 0 .563 1.571 2.1 2.1 0 0 0 1.54.661h10.989a2.11 2.11 0 0 0 1.985-1.388c.096-.27.136-.557.117-.844V95.424c0-8.539 5.814-14.315 13.608-14.315 8.324 0 12.948 6.566 12.948 14.578v35.209c.026.57.276 1.108.695 1.498.419.391.976.603 1.55.591h11.351a2.16 2.16 0 0 0 1.621-.624 2.15 2.15 0 0 0 .628-1.612V95.951C149.998 79.793 137.71 66 121.987 66"/></svg>
